Numix-GalliumOS/64/categories/preferences-desktop-peripherals-directory.svg

<?xml version="1.0" encoding="UTF-8" standalone="no"?>
<svg
   xmlns:dc="http://purl.org/dc/elements/1.1/"
   xmlns:cc="http://creativecommons.org/ns#"
   xmlns:rdf="http://www.w3.org/1999/02/22-rdf-syntax-ns#"
   xmlns:svg="http://www.w3.org/2000/svg"
   xmlns="http://www.w3.org/2000/svg"
   xmlns:sodipodi="http://sodipodi.sourceforge.net/DTD/sodipodi-0.dtd"
   xmlns:inkscape="http://www.inkscape.org/namespaces/inkscape"
   width="64"
   height="64"
   viewBox="0 0 64 64"
   id="svg2"
   version="1.1"
   inkscape:version="0.91 r"
   sodipodi:docname="preferences-desktop-peripherals-directory.svg">
  <metadata
     id="metadata36">
    <rdf:RDF>
      <cc:Work
         rdf:about="">
        <dc:format>image/svg+xml</dc:format>
        <dc:type
           rdf:resource="http://purl.org/dc/dcmitype/StillImage" />
        <dc:title />
      </cc:Work>
    </rdf:RDF>
  </metadata>
  <defs
     id="defs34" />
  <sodipodi:namedview
     pagecolor="#ffffff"
     bordercolor="#666666"
     borderopacity="1"
     objecttolerance="10"
     gridtolerance="10"
     guidetolerance="10"
     inkscape:pageopacity="0"
     inkscape:pageshadow="2"
     inkscape:window-width="1680"
     inkscape:window-height="1026"
     id="namedview32"
     showgrid="true"
     inkscape:zoom="5.2149125"
     inkscape:cx="12.030724"
     inkscape:cy="10.057733"
     inkscape:window-x="0"
     inkscape:window-y="24"
     inkscape:window-maximized="1"
     inkscape:current-layer="svg2">
    <inkscape:grid
       type="xygrid"
       id="grid4164" />
  </sodipodi:namedview>
  <path
     style="fill:#555555"
     inkscape:connector-curvature="0"
     id="path6"
     d="m 24.101562,12.88145 c 0,-0.766586 -0.448276,-1.38145 -1,-1.38145 -0.551724,0 -1,0.614864 -1,1.38145 l 0,5.11855 2,0 z" />
  <path
     style="fill:#555555"
     inkscape:connector-curvature="0"
     id="path8"
     d="m 22.101562,51.110564 c 0,0.766584 0.448276,1.389436 1,1.389436 0.551724,0 1,-0.622852 1,-1.389436 l 0,-5.110564 -2,0 z" />
  <path
     style="fill:#555555"
     inkscape:connector-curvature="0"
     id="path10"
     d="M 33,12.88145 C 33,12.114864 32.550432,11.5 31.997118,11.5 31.443804,11.5 31,12.114864 31,12.88145 L 31,18 l 2,0 z" />
  <path
     style="fill:#555555"
     inkscape:connector-curvature="0"
     id="path12"
     d="M 31,51.110564 C 31,51.877148 31.443804,52.5 31.997118,52.5 32.550432,52.5 33,51.877148 33,51.110564 L 33,46 31,46 Z" />
  <path
     style="fill:#555555"
     inkscape:connector-curvature="0"
     id="path14"
     d="M 42,12.88145 C 42,12.114864 41.556194,11.5 40.997118,11.5 40.443804,11.5 40,12.114864 40,12.88145 L 40,18 l 2,0 z" />
  <path
     style="fill:#555555"
     inkscape:connector-curvature="0"
     id="path16"
     d="M 40,51.110564 C 40,51.877148 40.443804,52.5 41.00288,52.5 41.556194,52.5 42,51.877148 42,51.110564 L 42,46 40,46 Z" />
  <path
     style="fill:#555555"
     inkscape:connector-curvature="0"
     id="path18"
     d="M 12.883148,40 C 12.115621,40 11.5,40.443806 11.5,40.99712 11.5,41.550434 12.115621,42 12.883148,42 L 18,42 18,40 Z" />
  <path
     style="fill:#555555"
     inkscape:connector-curvature="0"
     id="path20"
     d="M 51.108858,42 C 51.876384,42 52.5,41.550434 52.5,40.99712 52.5,40.443806 51.876384,40 51.108858,40 L 46,40 l 0,2 z" />
  <path
     style="fill:#555555"
     inkscape:connector-curvature="0"
     id="path22"
     d="M 12.883148,31 C 12.115621,31 11.5,31.448276 11.5,32 c 0,0.545976 0.615621,1 1.383148,1 L 18,33 18,31 Z" />
  <path
     style="fill:#555555"
     inkscape:connector-curvature="0"
     id="path24"
     d="M 51.108858,33 C 51.876384,33 52.5,32.545976 52.5,32 c 0,-0.551724 -0.623616,-1 -1.391142,-1 L 46,31 l 0,2 z" />
  <path
     style="fill:#555555"
     inkscape:connector-curvature="0"
     id="path26"
     d="M 12.883148,22 C 12.115621,22 11.5,22.448276 11.5,23 c 0,0.545976 0.615621,1 1.383148,1 L 18,24 18,22 Z" />
  <path
     style="fill:#555555"
     inkscape:connector-curvature="0"
     id="path28"
     d="M 51.108858,24 C 51.876384,24 52.5,23.545976 52.5,23 c 0,-0.551724 -0.623616,-1 -1.391142,-1 L 46,22 l 0,2 z" />
  <path
     style="fill:#555555"
     inkscape:connector-curvature="0"
     id="path30"
     d="M 39.286878,42 C 40.776872,42 42,40.790352 42,39.29128 L 42,24.708722 C 42,23.209648 40.776872,22 39.286878,22 L 24.70571,22 C 23.215716,22 22,23.209648 22,24.708722 L 22,39.29128 C 22,40.790352 23.215716,42 24.70571,42 Z" />
</svg>

<svg xmlns="http://www.w3.org/2000/svg" viewBox="0 0 64 64">
 <path d="m 24.1 12.881 c 0 -0.767 -0.448 -1.381 -1 -1.381 -0.552 0 -1 0.615 -1 1.381 l 0 5.119 2 0 z" style="fill:#555"/>
 <path d="m 22.1 51.11 c 0 0.767 0.448 1.389 1 1.389 0.552 0 1 -0.623 1 -1.389 l 0 -5.111 -2 0 z" style="fill:#555"/>
 <path d="m 33 12.881 c 0 -0.767 -0.45 -1.381 -1 -1.381 -0.553 0 -0.997 0.615 -0.997 1.381 l 0 5.119 l 2 0 z" style="fill:#555"/>
 <path d="m 31 51.11 c 0 0.767 0.444 1.389 0.997 1.389 0.553 0 1 -0.623 1 -1.389 l 0 -5.111 -2 0" style="fill:#555"/>
 <path d="m 42 12.881 c 0 -0.767 -0.444 -1.381 -1 -1.381 -0.553 0 -0.997 0.615 -0.997 1.381 l 0 5.119 l 2 0 z" style="fill:#555"/>
 <path d="m 40 51.11 c 0 0.767 0.444 1.389 1 1.389 0.553 0 0.997 -0.623 0.997 -1.389 l 0 -5.111 -2 0" style="fill:#555"/>
 <path d="m 12.883 40 c -0.768 0 -1.383 0.444 -1.383 0.997 0 0.553 0.616 1 1.383 1 l 5.117 0 0 -2" style="fill:#555"/>
 <path d="m 51.11 42 c 0.768 0 1.391 -0.45 1.391 -1 0 -0.553 -0.624 -0.997 -1.391 -0.997 l -5.109 0 l 0 2 z" style="fill:#555"/>
 <path d="m 12.883 31 c -0.768 0 -1.383 0.448 -1.383 1 c 0 0.546 0.616 1 1.383 1 l 5.117 0 0 -2" style="fill:#555"/>
 <path d="m 51.11 33 c 0.768 0 1.391 -0.454 1.391 -1 c 0 -0.552 -0.624 -1 -1.391 -1 l -5.109 0 l 0 2 z" style="fill:#555"/>
 <path d="m 12.883 22 c -0.768 0 -1.383 0.448 -1.383 1 c 0 0.546 0.616 1 1.383 1 l 5.117 0 0 -2" style="fill:#555"/>
 <path d="m 51.11 24 c 0.768 0 1.391 -0.454 1.391 -1 c 0 -0.552 -0.624 -1 -1.391 -1 l -5.109 0 l 0 2 z" style="fill:#555"/>
 <path d="m 39.29 42 c 1.49 0 2.713 -1.21 2.713 -2.709 l 0 -14.583 c 0 -1.499 -1.223 -2.709 -2.713 -2.709 l -14.581 0 c -1.49 0 -2.706 1.21 -2.706 2.709 l 0 14.583 c 0 1.499 1.216 2.709 2.706 2.709" style="fill:#555"/>
</svg>
